packages/ffe-icons/icons/open/400/sm/move_selection_right.svg

<svg xmlns="http://www.w3.org/2000/svg" height="20" viewBox="0 -960 960 960" width="20"><path d="M456-240q-29.7 0-50.85-21.15Q384-282.3 384-312v-336q0-29.7 21.15-50.85Q426.3-720 456-720h336q29.7 0 50.85 21.15Q864-677.7 864-648v336q0 29.7-21.15 50.85Q821.7-240 792-240H456Zm0-408v336h336v-336H456Zm-179.79 0q-15.21 0-25.71-10.29t-10.5-25.5q0-15.21 10.29-25.71t25.5-10.5q15.21 0 25.71 10.29t10.5 25.5q0 15.21-10.29 25.71t-25.5 10.5Zm-144 0q-15.21 0-25.71-10.29T96-683.79q0-15.21 10.29-25.71t25.5-10.5q15.21 0 25.71 10.29t10.5 25.5q0 15.21-10.29 25.71t-25.5 10.5Zm0 204q-15.21 0-25.71-10.29T96-479.79q0-15.21 10.29-25.71t25.5-10.5q15.21 0 25.71 10.29t10.5 25.5q0 15.21-10.29 25.71t-25.5 10.5Zm0 204q-15.21 0-25.71-10.29T96-275.79q0-15.21 10.29-25.71t25.5-10.5q15.21 0 25.71 10.29t10.5 25.5q0 15.21-10.29 25.71t-25.5 10.5Zm144 0q-15.21 0-25.71-10.29t-10.5-25.5q0-15.21 10.29-25.71t25.5-10.5q15.21 0 25.71 10.29t10.5 25.5q0 15.21-10.29 25.71t-25.5 10.5ZM624-480Z"/></svg>

<svg xmlns="http://www.w3.org/2000/svg" height="20" viewBox="0 -960 960 960" width="20"><path d="M456-240q-29.7 0-50.85-21.15Q384-282.3 384-312v-336q0-29.7 21.15-50.85Q426.3-720 456-720h336q29.7 0 50.85 21.15Q864-677.7 864-648v336q0 29.7-21.15 50.85Q821.7-240 792-240H456Zm0-408v336h336v-336H456Zm-179.789 0Q261-648 250.5-658.289q-10.5-10.29-10.5-25.5Q240-699 250.289-709.5q10.29-10.5 25.5-10.5Q291-720 301.5-709.711q10.5 10.29 10.5 25.5Q312-669 301.711-658.5q-10.29 10.5-25.5 10.5Zm-144 0Q117-648 106.5-658.289q-10.5-10.29-10.5-25.5Q96-699 106.289-709.5q10.29-10.5 25.5-10.5Q147-720 157.5-709.711q10.5 10.29 10.5 25.5Q168-669 157.711-658.5q-10.29 10.5-25.5 10.5Zm0 204Q117-444 106.5-454.289q-10.5-10.29-10.5-25.5Q96-495 106.289-505.5q10.29-10.5 25.5-10.5Q147-516 157.5-505.711q10.5 10.29 10.5 25.5Q168-465 157.711-454.5q-10.29 10.5-25.5 10.5Zm0 204Q117-240 106.5-250.289q-10.5-10.29-10.5-25.5Q96-291 106.289-301.5q10.29-10.5 25.5-10.5Q147-312 157.5-301.711q10.5 10.29 10.5 25.5Q168-261 157.711-250.5q-10.29 10.5-25.5 10.5Zm144 0Q261-240 250.5-250.289q-10.5-10.29-10.5-25.5Q240-291 250.289-301.5q10.29-10.5 25.5-10.5Q291-312 301.5-301.711q10.5 10.29 10.5 25.5Q312-261 301.711-250.5q-10.29 10.5-25.5 10.5ZM624-480Z"/></svg>
